X: 7
T:Rose Tree in Full Bearing, Brackley
M:4/4
L:1/4
Q:120
A:Brackley
P:AB
K:G
P:A
B/A/|GE DB,|C4   |GG AG/A/|BA AB/A/|
GE DB,|C4   |G2 AG/A/|BG G2   ||
P:B
BA Bc |d2 cB|AB cd   |eA AB/A/|
GE DB,|C4   |G2 AG/A/|BG G2   ||
